images/icons/twitch.svg

<svg fill="none" height="24" viewBox="0 0 24 24" width="24" xmlns="http://www.w3.org/2000/svg"><g fill="#fff"><path d="m6.16667 0-4.16667 4.28571v15.42859h5.00001v4.2857l4.16669-4.2857h3.3333l7.5-7.7143v-12zm14.16663 11.1429-3.3333 3.4285h-3.3333l-2.9167 3v-3h-3.74999v-12.85711h13.33329z"/><path d="m17.8333 4.71436h-1.6667v5.14284h1.6667z"/><path d="m13.2499 4.71436h-1.6666v5.14284h1.6666z"/></g></svg>

<svg width="24" height="24" viewBox="0 0 24 24" fill="none" xmlns="http://www.w3.org/2000/svg">
<path d="M6.16667 0L2 4.28571V19.7143H7.00001V24L11.1667 19.7143H14.5L22 12V0H6.16667ZM20.3333 11.1429L17 14.5714H13.6667L10.75 17.5714V14.5714H7.00001V1.71429H20.3333V11.1429Z" fill="white"/>
<path d="M17.8333 4.71436H16.1666V9.8572H17.8333V4.71436Z" fill="white"/>
<path d="M13.2499 4.71436H11.5833V9.8572H13.2499V4.71436Z" fill="white"/>
</svg>
